dist/img/icons/vuejs/vuejs-original.svg

<svg xmlns="http://www.w3.org/2000/svg" height="128" viewBox="0 0 128 128" width="128" version="1.1"><path d="m-2.3125e-8 8.9337 49.854 0.1586 14.167 24.47 14.432-24.47 49.547-0.1577-63.834 110.14zm126.98 0.6374-24.36 0.0207-38.476 66.052-38.453-66.052-24.749-0.0194 63.211 107.89zm-25.149-0.008-22.745 0.16758l-15.053 24.647-14.817-24.647-22.794-0.1679 37.731 64.476zM25.997 9.3929l23.002 0.0087M25.997 9.3929l23.002 0.0087" fill="none"/><path d="m25.997 9.3929 23.002 0.0087l15.036 24.958 14.983-24.956 22.982-0.0057-37.85 65.655z" fill="#35495e"/><path d="m0.91068 9.5686 25.066-0.1711 38.151 65.658 37.852-65.654 25.11 0.0263-62.966 108.06z" fill="#41b883"/></svg>

<svg xmlns="http://www.w3.org/2000/svg" height="128" width="128"><path d="M0 8.934l49.854.158 14.167 24.47 14.432-24.47L128 8.935l-63.834 110.14zm126.98.637l-24.36.02-38.476 66.053L25.691 9.592.942 9.572l63.211 107.89zm-25.149-.008l-22.745.168-15.053 24.647L49.216 9.73l-22.794-.168 37.731 64.476zm-75.834-.17l23.002.009m-23.002-.01l23.002.01" fill="none"/><path d="M25.997 9.393l23.002.009L64.035 34.36 79.018 9.404 102 9.398 64.15 75.053z" fill="#35495e"/><path d="M.91 9.569l25.067-.172 38.15 65.659L101.98 9.401l25.11.026-62.966 108.06z" fill="#41b883"/></svg>
